SF_Symbols/clock.badge.fill.svg

<?xml version="1.0" encoding="UTF-8"?>
<svg xmlns="http://www.w3.org/2000/svg" xmlns:xlink="http://www.w3.org/1999/xlink" width="24" height="24" viewBox="0 0 24 24" version="1.1">
<g id="surface1">
<path style=" stroke:none;fill-rule:nonzero;fill:rgb(100%,100%,100%);fill-opacity:1;" d="M 11.292969 23.050781 C 12.832031 23.050781 14.277344 22.757812 15.628906 22.167969 C 16.988281 21.582031 18.1875 20.769531 19.222656 19.730469 C 20.261719 18.695312 21.074219 17.5 21.660156 16.148438 C 22.25 14.785156 22.542969 13.339844 22.542969 11.800781 C 22.542969 11.308594 22.511719 10.828125 22.445312 10.355469 C 22.378906 9.878906 22.28125 9.414062 22.148438 8.96875 C 21.800781 9.136719 21.4375 9.265625 21.054688 9.351562 C 20.671875 9.441406 20.28125 9.484375 19.886719 9.484375 C 18.90625 9.484375 18.015625 9.246094 17.207031 8.769531 C 16.40625 8.28125 15.761719 7.636719 15.277344 6.828125 C 14.796875 6.019531 14.558594 5.128906 14.558594 4.15625 C 14.558594 3.644531 14.628906 3.148438 14.769531 2.667969 C 14.90625 2.191406 15.105469 1.746094 15.363281 1.335938 C 14.730469 1.078125 14.074219 0.882812 13.390625 0.75 C 12.707031 0.617188 12.003906 0.550781 11.28125 0.550781 C 9.746094 0.550781 8.296875 0.84375 6.9375 1.433594 C 5.585938 2.023438 4.390625 2.835938 3.351562 3.871094 C 2.324219 4.90625 1.515625 6.105469 0.925781 7.46875 C 0.339844 8.820312 0.0429688 10.265625 0.0429688 11.800781 C 0.0429688 13.339844 0.339844 14.785156 0.925781 16.148438 C 1.515625 17.5 2.328125 18.695312 3.363281 19.730469 C 4.402344 20.769531 5.59375 21.582031 6.949219 22.167969 C 8.308594 22.757812 9.757812 23.050781 11.292969 23.050781 Z M 5.527344 12.992188 C 5.304688 12.992188 5.121094 12.917969 4.972656 12.773438 C 4.828125 12.625 4.753906 12.441406 4.753906 12.21875 C 4.753906 12.007812 4.828125 11.828125 4.972656 11.679688 C 5.121094 11.53125 5.304688 11.460938 5.527344 11.460938 L 10.523438 11.460938 L 10.523438 4.785156 C 10.523438 4.574219 10.59375 4.394531 10.742188 4.246094 C 10.890625 4.097656 11.070312 4.027344 11.28125 4.027344 C 11.503906 4.027344 11.6875 4.097656 11.835938 4.246094 C 11.980469 4.394531 12.054688 4.574219 12.054688 4.785156 L 12.054688 12.21875 C 12.054688 12.441406 11.980469 12.625 11.835938 12.773438 C 11.6875 12.917969 11.503906 12.992188 11.28125 12.992188 Z M 19.886719 7.984375 C 20.578125 7.984375 21.214844 7.8125 21.792969 7.46875 C 22.375 7.121094 22.839844 6.65625 23.183594 6.078125 C 23.53125 5.496094 23.703125 4.855469 23.703125 4.15625 C 23.703125 3.460938 23.53125 2.820312 23.183594 2.238281 C 22.839844 1.65625 22.375 1.195312 21.792969 0.847656 C 21.214844 0.503906 20.578125 0.332031 19.886719 0.332031 C 19.179688 0.332031 18.535156 0.503906 17.957031 0.847656 C 17.382812 1.195312 16.921875 1.65625 16.578125 2.238281 C 16.230469 2.820312 16.058594 3.460938 16.058594 4.15625 C 16.058594 4.855469 16.230469 5.496094 16.578125 6.078125 C 16.921875 6.65625 17.382812 7.121094 17.957031 7.46875 C 18.535156 7.8125 19.179688 7.984375 19.886719 7.984375 Z M 19.886719 7.984375 "/>
</g>
</svg>

<svg xmlns="http://www.w3.org/2000/svg" width="24" height="24"><path style="stroke:none;fill-rule:nonzero;fill:#fff;fill-opacity:1" d="M11.293 23.05c1.539 0 2.984-.292 4.336-.882a11.391 11.391 0 0 0 3.594-2.438 11.406 11.406 0 0 0 2.437-3.582c.59-1.363.883-2.808.883-4.347 0-.492-.031-.973-.098-1.446a9.321 9.321 0 0 0-.297-1.386c-.347.168-.71.297-1.093.383-.383.09-.774.132-1.168.132-.98 0-1.871-.238-2.68-.714a5.598 5.598 0 0 1-1.93-1.942 5.148 5.148 0 0 1-.718-2.672c0-.511.07-1.008.21-1.488.137-.477.336-.922.594-1.332A10.505 10.505 0 0 0 13.391.75c-.684-.133-1.387-.2-2.11-.2-1.535 0-2.984.294-4.344.884A11.647 11.647 0 0 0 3.353 3.87 11.596 11.596 0 0 0 .926 7.47 10.799 10.799 0 0 0 .043 11.8c0 1.539.297 2.984.883 4.347a11.562 11.562 0 0 0 2.437 3.582 11.489 11.489 0 0 0 3.586 2.438c1.36.59 2.809.883 4.344.883ZM5.527 12.993a.757.757 0 0 1-.554-.219.773.773 0 0 1-.22-.554.744.744 0 0 1 .773-.758h4.997V4.785c0-.21.07-.39.22-.539a.73.73 0 0 1 .538-.219.763.763 0 0 1 .551.211.758.758 0 0 1 .223.547v7.434a.773.773 0 0 1-.22.554.773.773 0 0 1-.554.22Zm14.36-5.008c.691 0 1.328-.171 1.906-.515a3.92 3.92 0 0 0 1.39-1.39c.348-.583.52-1.224.52-1.923 0-.695-.172-1.336-.52-1.918a3.952 3.952 0 0 0-1.39-1.39 3.668 3.668 0 0 0-1.906-.516c-.707 0-1.352.172-1.93.516a3.95 3.95 0 0 0-1.379 1.39 3.65 3.65 0 0 0-.52 1.918c0 .7.172 1.34.52 1.922.336.57.813 1.05 1.379 1.39.582.345 1.25.524 1.93.516Zm0 0"/></svg>
